X:28
T:Contented Mind* (h)
B:NFID.174b ("untitled highland")
028cont_m
S:?
L:1/8
M:C
R:hornpipe
Q:280
K:Em
GA|B<EBA B<EBA|B<dFA DEFA|B<EBA B<EBA|(3B^cd (3FGA B<E:|
Ba|gfef g<ebe|fede f<dad|gfef g<ebe|fede feef|
gbeb gbag|fded fgaf|(3gbg (3fbf (3efe (3dBA|(3B^cd (3FGA B<E||


%%%

